build/category/LayoutSolid.svg

<svg xmlns="http://www.w3.org/2000/svg" fill="none" viewBox="0 0 24 24" focusable="false"><path d="M0 0H24V24H0z"/><path fill="#74767B" fill-rule="evenodd" d="M5.3 4C4.58203 4 4 4.58203 4 5.3L4 6.7C4 7.41797 4.58203 8 5.3 8L18.7 8C19.418 8 20 7.41797 20 6.7L20 5.3C20 4.58203 19.418 4 18.7 4L5.3 4ZM5.3 9.28906C4.58203 9.28906 4 9.87109 4 10.5891L4 18.7C4 19.418 4.58203 20 5.3 20L7.40779 20C8.12576 20 8.70779 19.418 8.70779 18.7L8.70779 10.5891C8.70779 9.87109 8.12576 9.28906 7.40779 9.28906L5.3 9.28906ZM10 10.5891C10 9.87109 10.582 9.28906 11.3 9.28906L18.7 9.28906C19.418 9.28906 20 9.87109 20 10.5891L20 18.7C20 19.418 19.418 20 18.7 20L11.3 20C10.582 20 10 19.418 10 18.7L10 10.5891Z"/></svg>

<svg xmlns="http://www.w3.org/2000/svg" fill="none" viewBox="0 0 24 24" focusable="false"><path fill="#74767B" fill-rule="evenodd" d="M5.29 4C4.58 4 4 4.58 4 5.29V6.7C4 7.41 4.58 8 5.29 8H18.7c.71 0 1.3-.59 1.3-1.3V5.29C20 4.58 19.41 4 18.7 4zm0 5.28c-.71 0-1.29.59-1.29 1.3v8.12c0 .71.58 1.3 1.29 1.3H7.4c.72 0 1.3-.59 1.3-1.3v-8.12c0-.71-.58-1.3-1.3-1.3zm4.71 1.3c0-.71.58-1.3 1.29-1.3h7.41c.71 0 1.3.59 1.3 1.3v8.12c0 .71-.59 1.3-1.3 1.3h-7.41c-.71 0-1.29-.59-1.29-1.3z"/></svg>
